X: 53
M:2/4
L:1/16
K:Bb
ukf2|\
kb2.f.e (dc).B.d | (cB).A.c .B2.B.G | (FG).A.B (cd).e.c |\
(dc).B.d .c2kf2 |
kb2.f.e (dc).B.d | (cB).A.c .B2.B.G | (FG).A.B (cd).e.c |\
(dB).c.A .B2  ::
u(fg)|\
.f.d(Bd) .f.d(gd) | .f.d(Bd) .f.d(bd) | .f.d(Bd) .f.d(gd) |\
edcd .e2(fg) |
.f.d(Bd) .f.d(gd) | .f.d(Bd) .f.d(bd) | bagf edcB |\


